X: 083	% 19
T: Devils Dream
S: Viola Ruth "Pioneer Western Folk Tunes" 1948 p.8 #3
R: reel
Z: 2019 John Chambers <jc:trillian.mit.edu>
N: It's not obvious why that last G is sharped.
M: 2/4
L: 1/16
K: A
V: 1 name=19
"Fast"e2 |\
agae agae | agae fedc | dfBf "^Rocking bow"dfBf dfBf agfe | agae agae |
agae fedc | dfed cABG | E2A2 A3e :: "^Rocking bow"ceAe ceAe | ceAe fedc | dfBf dfBf |
dfBf agfe | ceAe ceAe | ceAe fedc | dfed cAB^G | E2A2 A,2 :|
